brandFactory_export/3.Masa/Coche_3Masa.svg

<?xml version="1.0" encoding="UTF-8"?>
<svg width="24px" height="24px" viewBox="0 0 24 24" version="1.1" xmlns="http://www.w3.org/2000/svg" xmlns:xlink="http://www.w3.org/1999/xlink">
    <title>3.Masa/Coche_3Masa</title>
    <g id="Symbols" stroke="none" stroke-width="1" fill="none" fill-rule="evenodd">
        <g id="3.Masa/Coche_3Masa" fill="#5CB615" fill-rule="nonzero">
            <path d="M16.3260504,17.3663866 C15.2,17.3663866 14.6487395,16.8352941 14.6487395,15.7428571 C14.6487395,14.6504202 15.1966387,14.1193277 16.3260504,14.1193277 C17.4521008,14.1193277 18,14.6504202 18,15.7428571 C18,16.8352941 17.4521008,17.3663866 16.3260504,17.3663866 M6.06386555,17.3596639 C4.93781513,17.3596639 4.38655462,16.8285714 4.38655462,15.7361345 C4.38655462,14.6436975 4.93445378,14.1092437 6.06386555,14.1092437 C7.19327731,14.1092437 7.74117647,14.6403361 7.74117647,15.7361345 C7.74117647,16.8285714 7.19327731,17.3596639 6.06386555,17.3596639 M22.9008403,11.887395 C21.5731092,9.65546218 19.287395,9.10420168 18.3798319,8.96638655 C17.6436975,7.98487395 14.9714286,5.01344538 9.61344538,5.01344538 C6.23529412,5.01344538 3.97647059,6.52605042 2.67563025,7.79663866 C0.830252101,9.59831933 0.0134453782,11.7361345 0.0235294118,13.010084 C-0.0806722689,14.7277311 0.201680672,15.8705882 0.211764706,15.9210084 C0.292436975,16.2403361 0.588235294,16.4655462 0.927731092,16.4655462 L2.98823529,16.4655462 C3.26386555,17.9142857 4.38991597,18.7915966 6.06722689,18.7915966 C7.74453782,18.7915966 8.86722689,17.9176471 9.14621849,16.4655462 L13.2504202,16.4655462 C13.5260504,17.9210084 14.6521008,18.7983193 16.3294118,18.7983193 C18.010084,18.7983193 19.1327731,17.9210084 19.4084034,16.4655462 L22.2689076,16.4655462 C22.4470588,16.4655462 22.6184874,16.4016807 22.7495798,16.2907563 C22.8235294,16.2235294 24.5781513,14.697479 22.9008403,11.887395" id="Coche_3Masa"></path>
        </g>
    </g>
</svg>

<svg width="24" height="24" viewBox="0 0 24 24" xmlns="http://www.w3.org/2000/svg"><path d="M16.326 17.366c-1.126 0-1.677-.53-1.677-1.623s.548-1.624 1.677-1.624c1.126 0 1.674.531 1.674 1.624 0 1.092-.548 1.623-1.674 1.623M6.064 17.36c-1.126 0-1.677-.531-1.677-1.624 0-1.092.547-1.627 1.677-1.627s1.677.531 1.677 1.627c0 1.093-.548 1.624-1.677 1.624M22.9 11.887c-1.328-2.232-3.614-2.783-4.521-2.92-.736-.982-3.409-3.954-8.767-3.954-3.378 0-5.637 1.513-6.937 2.784C.83 9.598.013 11.737.024 13.01c-.105 1.718.178 2.86.188 2.911.08.32.376.545.716.545h2.06c.276 1.448 1.402 2.326 3.08 2.326 1.677 0 2.8-.874 3.078-2.326h4.104c.276 1.455 1.402 2.332 3.08 2.332 1.68 0 2.803-.877 3.078-2.332h2.86c.18 0 .35-.064.482-.175.074-.067 1.828-1.594.15-4.404" fill="#5CB615" fill-rule="nonzero"/></svg>
